packages/foundations/assets/icons/functional/images/logos/db_14.svg

<svg width="14" height="14" viewBox="0 0 14 14" fill="none" xmlns="http://www.w3.org/2000/svg">
<g clip-path="url(#clip0_185_1706)">
<path fill-rule="evenodd" clip-rule="evenodd" d="M11.6667 2.91667C12.311 2.91667 12.8334 3.43902 12.8334 4.08335V9.90851C12.8346 10.5547 12.3129 11.0801 11.6667 11.0833H2.33919C1.6939 11.0833 1.1699 10.562 1.16669 9.91668V4.08335C1.16669 3.77292 1.2904 3.47528 1.51046 3.25632C1.73051 3.03736 2.02876 2.91513 2.33919 2.91667H11.6667ZM11.6667 3.74501H2.33919C2.25108 3.74522 2.16691 3.78152 2.10629 3.84545C2.04566 3.90938 2.01388 3.99536 2.01835 4.08335V9.90851C2.01519 9.99571 2.04755 10.0805 2.10803 10.1434C2.16851 10.2063 2.25193 10.2419 2.33919 10.2422H11.6667C11.7529 10.2404 11.8348 10.204 11.894 10.1413C11.9533 10.0786 11.9848 9.99471 11.9817 9.90851V4.08335C11.9861 3.99636 11.9551 3.91128 11.8958 3.84753C11.8364 3.78378 11.7538 3.74679 11.6667 3.74501ZM4.73435 4.32718C6.11685 4.32718 6.88103 5.19285 6.88103 6.97551C6.88335 8.52251 6.36419 9.66001 4.73435 9.67285H2.77202V4.32718H4.73435ZM9.67402 4.32951C11.1778 4.32951 11.2 5.52068 11.2 5.63151C11.1945 6.20588 10.8165 6.71007 10.2667 6.87635C11.2397 7.08751 11.3937 7.79451 11.3937 8.17018C11.3937 9.67285 9.83385 9.67285 9.33335 9.67285H7.44335V4.32951H9.67402ZM4.31552 5.16835H4.05535V8.80601H4.51152C5.19169 8.80601 5.58719 8.26235 5.58719 7.08635C5.58719 6.00951 5.47052 5.16835 4.31552 5.16835ZM9.27618 7.43285H8.71502V8.80601L9.28858 8.80581C9.53452 8.80296 10.1057 8.76028 10.1057 8.12001C10.1057 7.82135 9.94235 7.43285 9.27618 7.43285ZM9.11868 5.15318H8.71502V6.44351H9.22252C9.67052 6.44351 9.92252 6.14718 9.92252 5.79718C9.92252 5.35385 9.69385 5.15318 9.11868 5.15318Z" fill="#1A1C1F"/>
</g>
<defs>
<clipPath id="clip0_185_1706">
<rect width="14" height="14" fill="white"/>
</clipPath>
</defs>
</svg>

<svg xmlns="http://www.w3.org/2000/svg" width="14" height="14" fill="none"><g clip-path="url(#a)"><path fill="#1A1C1F" fill-rule="evenodd" d="M11.667 2.917c.644 0 1.166.522 1.166 1.166V9.91a1.173 1.173 0 0 1-1.166 1.174H2.339c-.645 0-1.17-.521-1.172-1.166V4.083a1.167 1.167 0 0 1 1.172-1.166zm0 .828H2.339a.32.32 0 0 0-.32.338V9.91a.32.32 0 0 0 .32.333h9.328a.32.32 0 0 0 .315-.333V4.083a.32.32 0 0 0-.315-.338m-6.933.582c1.383 0 2.147.866 2.147 2.649.002 1.547-.517 2.684-2.147 2.697H2.772V4.327zm4.94.003c1.504 0 1.526 1.19 1.526 1.302a1.31 1.31 0 0 1-.933 1.244c.973.212 1.127.919 1.127 1.294 0 1.503-1.56 1.503-2.06 1.503h-1.89V4.33zm-5.358.838h-.26v3.638h.456c.68 0 1.075-.544 1.075-1.72 0-1.076-.116-1.918-1.271-1.918m4.96 2.265h-.561v1.373h.574c.246-.003.817-.046.817-.686 0-.299-.164-.687-.83-.687m-.157-2.28h-.404v1.29h.508c.448 0 .7-.296.7-.646 0-.443-.23-.644-.804-.644" clip-rule="evenodd"/></g><defs><clipPath id="a"><path fill="#fff" d="M0 0h14v14H0z"/></clipPath></defs></svg>
